X:6464
T:Thady Casey's
O:england
M:4/4
L:1/8
R:reel
K:GMaj
B2 BA B/2c/2d ed|ABBA B~E3|BAGA B/2c/2d ef|gefd e2dc:|
BEEF FG2E|D2F/2E/2D BEEF|G3 A B2BA|BEED BEEF|
G3 E D2F/2E/2D|BEEF FG2A|B2 BA Beed||
